X:126
T:Braye's Magott
M:9/8
R:Slip-jig
L:1/8
Z:2011 John Chambers jc:trillian.mit.edu
C:Thomas Bray's Country Dances 1699
S:Colin Hume's website,  colinhume.com  - chords can also be printed below the stave.
Q:3/8=100   "rather quickly"
F:http://trillian.mit.edu/~jc/music/book/ThomasBraysCountryDances1699/11_BrayesMagott.abc
K:A
V:1
%%MIDI program 73     Flute
|: AcA ecA BGE | AcA ecA B2E | Acf ecf eca | ecf ece a2c :|
dfd afd ecA | dfd afd e2A | dfd afd ecA | dfd afd e2c |
dfd ecd BcA | BFA FBA G2E | AcA ecf eca | ecf ece a2 |]
V:2
%%MIDI program 41     Viola
|: C2E C2E D2E | C2E C2E D2E | C2D C2D CEF | E2D C2B, C2E :|
F2A F2A =G2A | F2A F2A =G2A | F2A F2A =G2A | F2A F2A C2E |
F3 E2F E2F | ^G3 F3 E2=D | C2E C2E CEF | E2D C2B, C2 |]
V:3 bass octave=-2
%%MIDI program 42     Cello
%%MIDI gchordoff
|: "A"A3 A3 "E"e>dc/B/ | "A"A3 A3 "E"e3 | "A"A3 A3 A3 | "A"A2"D"d "E"e3 "A"A3 :|
"D"d3 d3 "A"a>=gf/e/ | "D"d3 d3 "A"a3 | "D"d3 d3 "A"a3 | "D"d3 d3 "A"a3 |
"D"d3 "A"c2B "E"G2"A"A | "E"e3 "B7"^d3 "E"e>=dc/B/ | "A"A3 A3 A3 | "D"A2"D"d "E"e3 "A"A2 |]

